X: 35250
T: Rose Amang The Heather, The
R: strathspey
M: 4/4
K: Dmajor
|:f>gf>e d>ed>B|A>FA>d c<e e2|f>gf>e d>ed>B|c>de>a f<d d2:|
|:D2 (3FED F<A A>d|B>AB>d c<e e2|D2 (3FED F<A A>d|c>de>a f<d d2:|
f2 (3agf e2 (3gfe|d2 (3fed c2 (3edc|B2(3dcB A>df>a|g>fed c<a a2|
(3fef (3agf (3ede (3gfe|(3dcd (3fed (3cBc (3edc|(3BAB (3dcB A>df>a|g>fe>a f<d d2||

